src/icons/svg/phone.svg

<svg xmlns="http://www.w3.org/2000/svg" width="16" height="16"><path fill-rule="evenodd" fill="#7E7F84" d="M15.781.568l-.01 3.604c-.005.202-.169.322-.368.327h-.253c-.199.005-.357-.171-.353-.372l.014-2.42-4.237 4.268a.488.488 0 01-.697 0 .505.505 0 010-.706l4.222-4.253-2.328-.007a.405.405 0 01-.413-.372V.381a.384.384 0 01.368-.374l3.533.016a.03.03 0 01.01-.002l.18-.004a.336.336 0 01.252.102c.065.065.088.155.086.257l-.019.182c0 .004.013.006.013.01zM11.742 9.77c.188 0 .359.043.5.13.323.201 2.962 1.979 3.203 2.151.396.282.555.975.12 1.606C15.549 13.68 13.89 16 12.946 16h-.022c-2.696-.087-5.851-2.733-8.025-4.937C2.725 8.859.116 5.66.031 2.938 0 1.969 2.318.265 2.341.249 2.581.08 2.858 0 3.118 0c.331 0 .635.129.805.367.18.253 1.928 2.938 2.119 3.246.205.325.177.808-.076 1.292-.132.257-.57 1.036-.784 1.418.234.338.836 1.133 2.055 2.369 1.227 1.245 2.006 1.85 2.338 2.086a79.84 79.84 0 011.399-.798c.261-.139.528-.21.768-.21zM9.52 11.959l-.512-.364c-.379-.27-1.203-.915-2.468-2.197-1.259-1.277-1.896-2.115-2.164-2.501l-.36-.519.31-.55c.398-.708.678-1.213.768-1.387a.732.732 0 00.099-.322 284.24 284.24 0 00-2.034-3.117.218.218 0 00-.041-.004.384.384 0 00-.215.071c-.857.628-1.761 1.533-1.886 1.886.086 1.867 1.709 4.492 4.579 7.402 2.869 2.909 5.462 4.555 7.309 4.643.347-.131 1.234-1.048 1.859-1.925.075-.109.081-.195.074-.235a235.493 235.493 0 00-3.083-2.071h-.013a.7.7 0 00-.31.095c-.207.11-.843.476-1.369.78l-.543.315z"/></svg>

<svg 
 xmlns="http://www.w3.org/2000/svg"
 xmlns:xlink="http://www.w3.org/1999/xlink"
 width="16px" height="16px">
<path fill-rule="evenodd"  fill="rgb(126, 127, 132)"
 d="M15.781,0.568 L15.771,4.172 C15.766,4.374 15.602,4.494 15.403,4.499 L15.150,4.499 C14.951,4.504 14.793,4.328 14.797,4.127 L14.811,1.707 L10.574,5.975 C10.382,6.170 10.070,6.170 9.877,5.975 C9.685,5.781 9.685,5.464 9.877,5.269 L14.099,1.016 L11.771,1.009 C11.572,1.014 11.388,0.875 11.358,0.637 L11.358,0.381 C11.363,0.179 11.527,0.012 11.726,0.007 L15.259,0.023 C15.262,0.022 15.265,0.021 15.269,0.021 L15.449,0.017 C15.548,0.014 15.638,0.054 15.701,0.119 C15.766,0.184 15.789,0.274 15.787,0.376 L15.768,0.558 C15.768,0.562 15.781,0.564 15.781,0.568 ZM11.742,9.770 C11.930,9.770 12.101,9.813 12.242,9.900 C12.565,10.101 15.204,11.879 15.445,12.051 C15.841,12.333 16.000,13.026 15.565,13.657 C15.549,13.680 13.890,16.000 12.946,16.000 L12.924,16.000 C10.228,15.913 7.073,13.267 4.899,11.063 C2.725,8.859 0.116,5.660 0.031,2.938 C-0.000,1.969 2.318,0.265 2.341,0.249 C2.581,0.080 2.858,-0.000 3.118,-0.000 C3.449,-0.000 3.753,0.129 3.923,0.367 C4.103,0.620 5.851,3.305 6.042,3.613 C6.247,3.938 6.219,4.421 5.966,4.905 C5.834,5.162 5.396,5.941 5.182,6.323 C5.416,6.661 6.018,7.456 7.237,8.692 C8.464,9.937 9.243,10.542 9.575,10.778 C9.951,10.560 10.720,10.116 10.974,9.980 C11.235,9.841 11.502,9.770 11.742,9.770 ZM9.520,11.959 L9.008,11.595 C8.629,11.325 7.805,10.680 6.540,9.398 C5.281,8.121 4.644,7.283 4.376,6.897 L4.016,6.378 L4.326,5.828 C4.724,5.120 5.004,4.615 5.094,4.441 C5.179,4.278 5.194,4.164 5.193,4.119 C4.923,3.692 3.436,1.410 3.159,1.002 C3.148,1.000 3.135,0.998 3.118,0.998 C3.045,0.998 2.967,1.024 2.903,1.069 C2.046,1.697 1.142,2.602 1.017,2.955 C1.103,4.822 2.726,7.447 5.596,10.357 C8.465,13.266 11.058,14.912 12.905,15.000 C13.252,14.869 14.139,13.952 14.764,13.075 C14.839,12.966 14.845,12.880 14.838,12.840 C14.432,12.557 12.132,11.009 11.755,10.769 C11.752,10.769 11.747,10.769 11.742,10.769 C11.712,10.769 11.598,10.776 11.432,10.864 C11.225,10.974 10.589,11.340 10.063,11.644 L9.520,11.959 Z"/>
</svg>
